X:1
T:Others
T:Elizabeth McE. Shields
T:Others
T:Public Domain
T:Public Domain
C:Elizabeth McE. Shields
Z:Public Domain
%%score ( 1 2 ) ( 3 4 )
L:1/8
M:3/4
K:Eb
V:1 treble 
V:2 treble 
V:3 bass 
V:4 bass 
V:1
 [GB]2 | [EA]>[EG] [EG]3 [EG] | F>[=EG] [FA]3 [FA] | [Ad][Ac] [Ac]3 [Ad] | [Ac][GB] [GB]3 [GB] | %5
w: 1.~Lord,|help me live from|day to day In|a self- for- get-|ful way That e-|
w: 2.~Help|me in all the|work I do To|er be sin- cere|and true And know|
w: 3.~Let|“Self” be cru- ci-|fied and slain And|ied deep: and all|in vain May ef-|
w: 4.~And|when my work on|earth is done, And|new work in Heav-|’n’s be- gun, May|
 [EA]>[EG] [EG]3 [EG] | F>[=EG] [FA]3 [A_e] | [Ad]3 [Ac] [DA]>D | [DF]2 E4 || %9
w: ven when I kneel|to pray My prayer|be for— O- thers.||
w: that all I’d do|for You Must needs|done for— O- thers.|thers, Lord,|
w: forts be to rise|a- gain, Un- less|live for— O- thers.||
w: I forget the crown|I’ve won, While think-|still of— O- thers.||
"^Refrain" [EG][EG] z2 [^CG]>[CG] | [DA][DA] z [FA] [FA][FA] | [Ad]4 [Ac]2 | [GB]3 [EG] [EG][EG] | %13
w: ||||
w: o- thers, Let this|my mot- to be, Help|me to|live for o- thers,|
w: ||||
w: ||||
 F4 [=EG]2 | [FA][FA] z [FA] [FA][EA] | [DG]4 [DF]2 | E4 |] %17
w: ||||
w: That I|live like Thee. * *|||
w: ||||
w: ||||
V:2
 x2 | x6 | F3/2 x9/2 | x6 | x6 | x6 | F3/2 x9/2 | x11/2 D/ | x2 E4 || x6 | x6 | x6 | x6 | F4 x2 | %14
w: ||such||||shall||||||||
w: ||ev-||||be|O-|yes|||||may|
w: ||bur-||||to||||||||
w: ||my||||ing||||||||
 x6 | x6 | E4 |] %17
w: |||
w: |||
w: |||
w: |||
V:3
 [E,E]2 | [E,C]>[E,B,] [E,B,]3 [E,B,] | [A,C]>[G,C] [F,C]3 [F,C] | B,B, B,3 [B,D] | %4
 [E,E][E,E] [E,E]3 [E,E] | [E,C]>[E,B,] [E,B,]3 [E,B,] | [A,C]>[G,C] [F,C]3 [F,C] | %7
 B,3 B, B,>[B,,A,] | [B,,A,]2 [E,G,]4 || [E,B,][E,B,] z2 [=E,B,]>[E,B,] | %10
 [F,B,][F,B,] z [B,D] [B,D][B,D] | [B,F]4 [B,D]2 | [E,E]3 [E,B,] [E,B,][E,B,] | [A,C]4 [G,C]2 | %14
 [F,C][F,C] z [F,C] [F,C][F,C] | [B,,B,]4 [B,,A,]2 | [E,G,]4 |] %17
V:4
 x2 | x6 | x6 | B,B, B,3 x | x6 | x6 | x6 | B,3 B, B,3/2 x/ | x6 || x6 | x6 | x6 | x6 | x6 | x6 | %15
 x6 | x4 |] %17

